app/client/src/assets/icons/blueprintjs/20px/archive.svg

<?xml version="1.0" encoding="UTF-8"?>
<svg viewBox="0 0 20 20" version="1.1" xmlns="http://www.w3.org/2000/svg" xmlns:xlink="http://www.w3.org/1999/xlink">
    <title>Archive</title>
    <g stroke="none" stroke-width="1" fill="none" fill-rule="evenodd">
        <path d="M16.4338096,0 C16.7850725,2.73772263e-15 17.1105793,0.184298834 17.2913025,0.485504245 L20,5 L20,19 C20,19.5522847 19.5522847,20 19,20 L1,20 C0.44771525,20 6.76353751e-17,19.5522847 0,19 L0,5 L2.70869745,0.485504245 C2.8894207,0.184298834 3.21492753,-1.57518666e-16 3.56619038,0 L16.4338096,0 Z M10,8 C9.45,8 9,8.45 9,9 L9,9 L9,13.58 L7.71,12.29 L7.62868805,12.2167055 C7.45795918,12.0781633 7.24,11.99 7,11.99 C6.45,11.99 6,12.44 6,12.99 C6,13.27 6.11,13.52 6.29,13.7 L6.29,13.7 L9.29,16.7 L9.38564815,16.7839815 C9.55416667,16.9136111 9.76666667,16.99 10,16.99 C10.28,16.99 10.53,16.88 10.71,16.7 L10.71,16.7 L13.71,13.7 L13.7939815,13.6043519 C13.9236111,13.4358333 14,13.2233333 14,12.99 C14,12.44 13.55,11.99 13,11.99 C12.72,11.99 12.47,12.1 12.29,12.28 L12.29,12.28 L11,13.58 L11,9 L10.9932398,8.88380102 C10.9352041,8.3880102 10.5107143,8 10,8 Z M16,2 L4,2 L2,5.00162374 L18,5.00162374 L16,2 Z" id="Combined-Shape" fill="#000000"></path>
    </g>
</svg>

<svg xmlns="http://www.w3.org/2000/svg" viewBox="0 0 20 20"><path fill-rule="evenodd" d="M16.434 0a1 1 0 0 1 .857.486L20 5v14a1 1 0 0 1-1 1H1a1 1 0 0 1-1-1V5L2.709.486A1 1 0 0 1 3.566 0h12.868ZM10 8c-.55 0-1 .45-1 1v4.58l-1.29-1.29-.081-.073A.996.996 0 0 0 7 11.99a1.003 1.003 0 0 0-.71 1.71l3 3 .096.084c.168.13.38.206.614.206.28 0 .53-.11.71-.29l3-3 .084-.096a1.003 1.003 0 0 0-1.504-1.324L11 13.58V9l-.007-.116A1.004 1.004 0 0 0 10 8Zm6-6H4L2 5.002h16L16 2Z"/></svg>
